X:1
T:A Fenian Song
M:2/4
L:1/8
K:F
 z2 z A| fA G/2F/2 G| Ad d z/2 c/2| AG FE| DC A, z/2 A,/2| DD FG| Ad d z/2 c/2|\
 A3/2 G/2 FE| D2 D z|
